svg/blobs-icons/no-decorations/vacuum-cleaner.svg

<svg xmlns="http://www.w3.org/2000/svg" xmlns:xlink="http://www.w3.org/1999/xlink" preserveAspectRatio="xMidYMid" width="196" height="217" viewBox="0 0 196 217"><defs><style>.cls-3{fill:#0cb04a}.cls-4{fill:#fff}.cls-5{fill:#142a3b}.cls-6{fill:#010101;opacity:.35}.cls-9{fill:#ff3a2f}</style></defs><g id="group-5svg"><path d="M126.575 118.383c0-4.785-3.87900000000001-8.663-8.663-8.663H109.249s-47.774.0-47.774.0-16.894.0-16.894.0c-10.077.0-19.689 4.235-26.488 11.671L9.41 130.887C3.36 137.504.005 146.144.005 155.11v27.442C.005 187.337 3.883 191.216 8.667 191.216h91.92C105.371 191.216 109.249 187.337 109.249 182.552V140.585C109.249 135.8 113.128 131.921 117.912 131.921 122.696 131.921 126.575 128.042 126.575 123.258v-4.875z" id="path-1" class="cls-3" fill-rule="evenodd"/><path d="M7.891 166.61C5.894 166.61 4.277 164.992 4.277 162.996c0-9.893 3.676-19.362 10.352-26.661L23.312 126.838c7.465-8.163 18.091-12.847 29.155-12.847 1.996.0 3.615 1.62 3.615 3.616s-1.619 3.614-3.615 3.614C43.428 121.221 34.746 125.047 28.646 131.717L19.963 141.212c-5.454 5.965-8.458 13.702-8.458 21.784C11.505 164.992 9.887 166.61 7.891 166.61z" id="path-2" class="cls-4" fill-rule="evenodd"/><path d="M82.634 96.702s0-61.599.0-61.599c0-13.044 10.574-23.619 23.618-23.619 13.044.0 23.618 10.575 23.618 23.619l27.343 139.372s11.101.0 11.101.0S141.36 35.103 141.36 35.103c0-19.39-15.719-35.109-35.108-35.109-19.39.0-35.108 15.719-35.108 35.109V96.702s11.49.0 11.49.0z" id="path-3" class="cls-5" fill-rule="evenodd"/><path d="M71.144 96.702s11.49.0 11.49.0.0-9.107.0-9.107-11.49.0-11.49.0.0 9.107.0 9.107z" id="path-4" class="cls-6" fill-rule="evenodd"/><path d="M156.665 170.568S157.213 174.475 157.213 174.475s11.101.0 11.101.0S167.791 170.568 167.791 170.568s-11.126.0-11.126.0z" id="path-5" class="cls-6" fill-rule="evenodd"/><path d="M77.659 155.813c-14.683.0-26.586 11.903-26.586 26.586.0 3.096.555 6.054 1.528 8.81700000000001h47.986C101.371 191.216 102.117 191.078 102.839 190.882 103.737 188.216 104.245 185.37 104.245 182.399c0-14.683-11.903-26.586-26.586-26.586z" id="path-6" class="cls-6" fill-rule="evenodd"/><path d="M99.062 109.72s-45.142.0-45.142.0.0-13.876.0-13.876 45.142.0 45.142.0.0 13.876.0 13.876z" id="path-7" class="cls-9" fill-rule="evenodd"/><path d="M100.302 190.286c0 14.683-11.903 26.587-26.586 26.587-14.684.0-26.587-11.904-26.587-26.587.0-14.684 11.903-26.587 26.587-26.587 14.683.0 26.586 11.903 26.586 26.587z" id="path-8" class="cls-5" fill-rule="evenodd"/><path d="M83.114 190.286c0 5.191-4.208 9.398-9.39800000000001 9.398-5.19.0-9.398-4.20699999999999-9.398-9.398.0-5.19 4.208-9.398 9.398-9.398C78.906 180.888 83.114 185.096 83.114 190.286z" id="path-9" class="cls-9" fill-rule="evenodd"/><path d="M108.228 143.925s-28.51.0-28.51.0C78.719 143.925 77.911 143.116 77.911 142.118 77.911 141.119 78.719 140.311 79.718 140.311h28.51C109.228 140.311 110.036 141.119 110.036 142.118 110.036 143.116 109.228 143.925 108.228 143.925z" id="path-10" class="cls-5" fill-rule="evenodd"/><path d="M195.5 183.057s-68.925.0-68.925.0S126.575 174.475 126.575 174.475s68.925.0 68.925.0S195.5 183.057 195.5 183.057z" id="path-11" class="cls-9" fill-rule="evenodd"/></g></svg>

<svg xmlns="http://www.w3.org/2000/svg" xmlns:xlink="http://www.w3.org/1999/xlink" preserveAspectRatio="xMidYMid" width="196" height="217" viewBox="0 0 196 217">
  <defs>
    <style>

      .cls-3 {
        fill: #0cb04a;
      }

      .cls-4 {
        fill: #ffffff;
      }

      .cls-5 {
        fill: #142a3b;
      }

      .cls-6 {
        fill: #010101;
        opacity: 0.35;
      }

      .cls-9 {
        fill: #ff3a2f;
      }
    </style>
  </defs>
  <g id="group-5svg">
    <path d="M126.575,118.383 C126.575,113.598 122.696,109.720 117.912,109.720 C117.912,109.720 109.249,109.720 109.249,109.720 C109.249,109.720 61.475,109.720 61.475,109.720 C61.475,109.720 44.581,109.720 44.581,109.720 C34.504,109.720 24.892,113.955 18.093,121.391 C18.093,121.391 9.410,130.887 9.410,130.887 C3.360,137.504 0.005,146.144 0.005,155.110 C0.005,155.110 0.005,182.552 0.005,182.552 C0.005,187.337 3.883,191.216 8.667,191.216 C8.667,191.216 100.587,191.216 100.587,191.216 C105.371,191.216 109.249,187.337 109.249,182.552 C109.249,182.552 109.249,140.585 109.249,140.585 C109.249,135.800 113.128,131.921 117.912,131.921 C117.912,131.921 117.912,131.921 117.912,131.921 C122.696,131.921 126.575,128.042 126.575,123.258 C126.575,123.258 126.575,118.383 126.575,118.383 Z" id="path-1" class="cls-3" fill-rule="evenodd"/>
    <path d="M7.891,166.610 C5.894,166.610 4.277,164.992 4.277,162.996 C4.277,153.103 7.953,143.634 14.629,136.335 C14.629,136.335 23.312,126.838 23.312,126.838 C30.777,118.675 41.403,113.991 52.467,113.991 C54.463,113.991 56.082,115.611 56.082,117.607 C56.082,119.603 54.463,121.221 52.467,121.221 C43.428,121.221 34.746,125.047 28.646,131.717 C28.646,131.717 19.963,141.212 19.963,141.212 C14.509,147.177 11.505,154.914 11.505,162.996 C11.505,164.992 9.887,166.610 7.891,166.610 Z" id="path-2" class="cls-4" fill-rule="evenodd"/>
    <path d="M82.634,96.702 C82.634,96.702 82.634,35.103 82.634,35.103 C82.634,22.059 93.208,11.484 106.252,11.484 C119.296,11.484 129.870,22.059 129.870,35.103 C129.870,35.103 157.213,174.475 157.213,174.475 C157.213,174.475 168.314,174.475 168.314,174.475 C168.314,174.475 141.360,35.103 141.360,35.103 C141.360,15.713 125.641,-0.006 106.252,-0.006 C86.862,-0.006 71.144,15.713 71.144,35.103 C71.144,35.103 71.144,96.702 71.144,96.702 C71.144,96.702 82.634,96.702 82.634,96.702 Z" id="path-3" class="cls-5" fill-rule="evenodd"/>
    <path d="M71.144,96.702 C71.144,96.702 82.634,96.702 82.634,96.702 C82.634,96.702 82.634,87.595 82.634,87.595 C82.634,87.595 71.144,87.595 71.144,87.595 C71.144,87.595 71.144,96.702 71.144,96.702 Z" id="path-4" class="cls-6" fill-rule="evenodd"/>
    <path d="M156.665,170.568 C156.665,170.568 157.213,174.475 157.213,174.475 C157.213,174.475 168.314,174.475 168.314,174.475 C168.314,174.475 167.791,170.568 167.791,170.568 C167.791,170.568 156.665,170.568 156.665,170.568 Z" id="path-5" class="cls-6" fill-rule="evenodd"/>
    <path d="M77.659,155.813 C62.976,155.813 51.073,167.716 51.073,182.399 C51.073,185.495 51.628,188.453 52.601,191.216 C52.601,191.216 100.587,191.216 100.587,191.216 C101.371,191.216 102.117,191.078 102.839,190.882 C103.737,188.216 104.245,185.370 104.245,182.399 C104.245,167.716 92.342,155.813 77.659,155.813 Z" id="path-6" class="cls-6" fill-rule="evenodd"/>
    <path d="M99.062,109.720 C99.062,109.720 53.920,109.720 53.920,109.720 C53.920,109.720 53.920,95.844 53.920,95.844 C53.920,95.844 99.062,95.844 99.062,95.844 C99.062,95.844 99.062,109.720 99.062,109.720 Z" id="path-7" class="cls-9" fill-rule="evenodd"/>
    <path d="M100.302,190.286 C100.302,204.969 88.399,216.873 73.716,216.873 C59.032,216.873 47.129,204.969 47.129,190.286 C47.129,175.602 59.032,163.699 73.716,163.699 C88.399,163.699 100.302,175.602 100.302,190.286 Z" id="path-8" class="cls-5" fill-rule="evenodd"/>
    <path d="M83.114,190.286 C83.114,195.477 78.906,199.684 73.716,199.684 C68.526,199.684 64.318,195.477 64.318,190.286 C64.318,185.096 68.526,180.888 73.716,180.888 C78.906,180.888 83.114,185.096 83.114,190.286 Z" id="path-9" class="cls-9" fill-rule="evenodd"/>
    <path d="M108.228,143.925 C108.228,143.925 79.718,143.925 79.718,143.925 C78.719,143.925 77.911,143.116 77.911,142.118 C77.911,141.119 78.719,140.311 79.718,140.311 C79.718,140.311 108.228,140.311 108.228,140.311 C109.228,140.311 110.036,141.119 110.036,142.118 C110.036,143.116 109.228,143.925 108.228,143.925 Z" id="path-10" class="cls-5" fill-rule="evenodd"/>
    <path d="M195.500,183.057 C195.500,183.057 126.575,183.057 126.575,183.057 C126.575,183.057 126.575,174.475 126.575,174.475 C126.575,174.475 195.500,174.475 195.500,174.475 C195.500,174.475 195.500,183.057 195.500,183.057 Z" id="path-11" class="cls-9" fill-rule="evenodd"/>
  </g>
</svg>
